!!!COM: Frescobaldi, Girolamo
!!!CDT: 1583///-1643
!!!ONM: No. 25
!!!OTL: No. 25: Canzon Quarta &agrave; 3. Due Bassi e Canto
!!!OPR: Canzoni da sonare a una, due, tre et quattro, libro primo
!!!PPP: Venezia
!!!PDT: 1634
!!!URL: http://icking-music-archive.org/ByComposer/Frescobaldi.html
!!!ONB: Andrea Friggi, ed.
**kern	**kern	**kern	**kern
!Basso ad Organo	!Basso Secondo	!Basso Primo	!Canto Primo
*staff4	*staff3	*staff2	*staff1
*Icello	*Icello	*Icello	*Ivioln
*clefF4	*clefF4	*clefF4	*clefG2
*k[]	*k[]	*k[]	*k[]
*M3/1	*M3/1	*M3/1	*M3/1
*MM240	*MM240	*MM240	*MM240
=1-	=1-	=1-	=1-
0GG	1GG	1G	1dd
.	1GG	1G	1gg
1C	1C	1C	1ee
=2	=2	=2	=2
0GG	0GG	0G	1.dd
.	.	.	4ee\
.	.	.	4ff\
1EE	1EE	1r	1gg
=3	=3	=3	=3
0FF	0FF	1.F	1aa
.	.	.	1ff
.	.	2F\	.
1C	1C	1E	1gg
=4	=4	=4	=4
1.D	1.D	0D	1.ff
2D\	2D\	.	4ee\
.	.	.	4dd\
1AA	1AA	1A	1cc#
=5	=5	=5	=5
0D	0D	0D	0dd
1G	1GG	1r	1b
=6	=6	=6	=6
0C	1.C	1r	1.ee
.	.	1r	.
.	2C/	.	2ee\
1C	1C	1C	1ee
=7	=7	=7	=7
0FF	0FF	1.F	1ff
.	.	.	2cc\
.	.	2F\	2dd\
1EE	1EE	1C	2ee\
.	.	.	2cc\
=8	=8	=8	=8
0.GG	0.GG	0.GG	0dd
.	.	.	1dd
=9	=9	=9	=9
*met(C)	*met(C)	*met(C)	*met(C)
*M4/4	*M4/4	*M4/4	*M4/4
*	*	*	*MM144
1C	1C	1C	1ee
=10	=10	=10	=10
2C/	4r	1r	4ee\
.	4C/	.	8ee\L
.	.	.	8ee\J
4c\	4c\	.	8ee\L
.	.	.	8gg\
4A\	8A\L	.	8ff\
.	8A\J	.	8ee\J
=11	=11	=11	=11
4B-\	4B-\	1r	8dd\L
.	.	.	16ee\L
.	.	.	16ff\JJ
4G\	8G\L	.	8ee\L
.	8G\J	.	8dd\J
4A\	4A\	.	8cc\L
.	.	.	16dd\L
.	.	.	16ee\JJ
4F\	4F\	.	8dd\L
.	.	.	8cc\J
=12	=12	=12	=12
2G\	2G\	4G\	2b\
.	.	8G\L	.
.	.	8G\J	.
[2G\	2r	8G\L	2r
.	.	8c\	.
.	.	8B\	.
.	.	8A\J	.
=13	=13	=13	=13
4G\]	1r	4G\	2r
8A\L	.	8A\L	.
8G\J	.	8G\J	.
4F\	.	4F\	4r
4G\	.	4G\	4g/
=14	=14	=14	=14
2C/	1r	2C/	4gg\
.	.	.	8ee\L
.	.	.	8ee\J
2D\	.	2r	4ff\
.	.	.	8dd\L
.	.	.	8dd\J
=15	=15	=15	=15
2C/	1r	4r	8ee\L
.	.	.	8dd\
.	.	4C/	8ee\
.	.	.	8ff\J
4G\	.	4G\	4dd\
4E\	.	8E\L	4ee\
.	.	8E\J	.
=16	=16	=16	=16
4F\	1r	4F\	4cc\
4D\	.	8D\L	2dd\
.	.	8D\J	.
2AA/	.	4A\	.
.	.	4AA/	4cc#\
=17	=17	=17	=17
2.D\	4D\	2D\	4dd\
.	8D\L	.	4a/
.	8D\J	.	.
.	8D\L	2r	4dd\
.	8F\	.	.
8E\L	8E\	.	8b\L
8D\J	8D\J	.	8b\J
=18	=18	=18	=18
4C/	4C/	4r	4cc\
4D\	8D/L	4D\	8a/L
.	8C/J	.	8a/J
4BB/	4BB/	4.G\	4b\
4C/	4C/	.	[4ee\
.	.	8E\	.
=19	=19	=19	=19
2AA/	2AA/	4A\	8ee\L]
.	.	.	8gg\
.	.	4AA/	8ff#\
.	.	.	8ee\J
4D\	2r	4D\	4ff#\
4BB/	.	8BB/L	4gg\
.	.	8BB/J	.
=20	=20	=20	=20
4C/	2r	4C/	2ee\
4AA/	.	8AA/L	.
.	.	8AA/J	.
4BB/	4G\	4BB/	2r
4GG/	8G\L	4GG/	.
.	8G\J	.	.
=21	=21	=21	=21
2.G\	8G\L	2G\	1r
.	8c\	.	.
.	8B\	.	.
.	8A\J	.	.
.	4G\	2r	.
4A\	8A\L	.	.
.	8G\J	.	.
=22	=22	=22	=22
4F\	4F\	1r	2r
4G\	8G\L	.	.
.	8F\J	.	.
4E\	4E\	.	4cc\
4F\	4F\	.	8cc\L
.	.	.	8cc\J
=23	=23	=23	=23
2C/	2C/	4C/	8cc\L
.	.	.	8ff\
.	.	8C/L	8ee\
.	.	8C/J	8dd\J
8C\L	2r	8C\L	8cc\L
8F\	.	8F\	8a\
8E\	.	8E\	8cc\
8D\J	.	8D\J	8dd\J
=24	=24	=24	=24
4C/	4r	4C/	4ee\
4D\	4D\	8D/L	4ff#\
.	.	8C/J	.
4BB/	4G\	4BB/	2gg\
4C/	8E\L	4C/	.
.	8E\J	.	.
=25	=25	=25	=25
4AA/	4A\	4AA/	1r
4D\	8G\L	4D\	.
.	8F#\J	.	.
2GG/	4G\	2GG/	.
.	4GG/	.	.
=26	=26	=26	=26
2C/	1C	4r	4cc\
.	.	4C/	8cc\L
.	.	.	8cc\J
4c\	.	4c\	8cc\L
.	.	.	8gg\
4A\	.	8A\L	8ff\
.	.	8A\J	8ee\J
=27	=27	=27	=27
4B-\	1r	4B-\	4.dd\
4G\	.	8G\L	.
.	.	8G\J	16ee\LL
.	.	.	16dd\JJ
4A\	.	4A\	8cc\L
.	.	.	8ee\
4F#\	.	8F#\L	8dd\
.	.	8F#\J	8cc\J
=28	=28	=28	=28
4G\	1r	4G\	8b\L
.	.	.	8cc\J
4B-\	.	4B-\	2dd\
2A\	.	2A\	.
.	.	.	4cc#\
=29	=29	=29	=29
2.D\	4D\	4r	2dd\
.	8D\L	4D\	.
.	8D\J	.	.
.	8D\L	4d\	4dd\
.	8F\	.	.
8E\L	8E\	8B\L	4gg\
8D\J	8D\J	8B\J	.
=30	=30	=30	=30
4C/	4C/	4c\	8ee\L
.	.	.	8ee\J
4D\	4D\	8A\L	4ff#\
.	.	8A\J	.
4BB/	4BB/	4B\	8dd\L
.	.	.	8dd\J
4C/	4C/	8E\L	4ee\
.	.	8F#\J	.
=31	=31	=31	=31
2GG/	2GG/	2G\	4b\
.	.	.	4dd\
2D\	2D\	2D\	2dd\
=32	=32	=32	=32
1GG	1GG	1G	1dd
=33	=33	=33	=33
*M3/2	*M3/2	*M3/2	*M3/2
2D\	2D\	1.r	1.r
2G\	2G\	.	.
2A\	2A\	.	.
=34	=34	=34	=34
1.B-	2.B-\	1.r	2dd\
.	.	.	2dd\
.	4B-\	.	.
.	4A\	.	2ee\
.	4G\	.	.
=35	=35	=35	=35
2.F\	2.F\	1.r	2.ff\
4F\	4F\	.	4aa\
4E\	4E\	.	4gg\
4D\	4D\	.	4ff\
=36	=36	=36	=36
2AA/	1.A	2AA/	2ee\
2D\	.	2D\	2ff\
2E\	.	2E\	2gg\
=37	=37	=37	=37
1.F	1.r	2.F\	1cc
.	.	4F\	.
.	.	4E\	2dd\
.	.	4D\	.
=38	=38	=38	=38
1C#	1.r	1C#	2.ee\
.	.	.	4ee\
2D\	.	2D\	2dd\
=39	=39	=39	=39
1AA	2AA/	1AA	2.cc\
.	2A\	.	.
.	.	.	4cc\
2BB/	2B\	2r	4b\
.	.	.	4a/
=40	=40	=40	=40
1.C	2.c\	1.r	2.g/
.	4c\	.	4g/
.	4B\	.	2a/
.	4A\	.	.
=41	=41	=41	=41
1G	1G	1.r	1.b
2G\	2G\	.	.
=42	=42	=42	=42
1C	1C	4C/	1.r
.	.	4D\	.
.	.	4E\	.
.	.	4F\	.
2G\	2r	2G\	.
=43	=43	=43	=43
1A	1.r	2A\	4cc\
.	.	.	4dd\
.	.	2A\	4ee\
.	.	.	4ff\
2E\	.	2E\	2gg\
=44	=44	=44	=44
1F	4F\	1F	2aa\
.	4G\	.	.
.	4A\	.	2ff\
.	4B\	.	.
2C/	2c\	2r	2ee\
=45	=45	=45	=45
1F	1F	1.r	4ff\
.	.	.	4cc\
.	.	.	4ff\
.	.	.	4aa\
2E\	2E\	.	2gg\
=46	=46	=46	=46
1D	1D	4D\	2.ff\
.	.	4E\	.
.	.	4F\	.
.	.	4G\	4ff\
2A\	2r	2A\	2ee\
=47	=47	=47	=47
1B-	1.r	2.B-\	4dd\
.	.	.	4ee\
.	.	.	4ff\
.	.	8A\L	4gg\
.	.	8G\J	.
2F#\	.	2F#\	2aa\
=48	=48	=48	=48
1G	4GG/	1G	1gg
.	4AA/	.	.
.	4BB/	.	.
.	4C/	.	.
2D\	2D\	2D\	2ff\
=49	=49	=49	=49
1AA	1AA	4A\	1ee
.	.	4E\	.
.	.	4A\	.
.	.	4A\	.
2GG/	2r	2G\	2r
=50	=50	=50	=50
1FF	4F\	1F	4aa\
.	4G\	.	4dd\
.	4A\	.	4ff\
.	4B\	.	4ff\
2C/	2c\	2r	2ee\
=51	=51	=51	=51
1F	4A\	1.r	4ff\
.	4F\	.	4a/
.	4A\	.	4cc\
.	4B\	.	4dd\
2G\	2G\	.	2b\
=52	=52	=52	=52
1C	1C	4C/	4cc\
.	.	4D\	4b\
.	.	4E\	4g/
.	.	4F\	4a/
2FF/	2r	2G\	4b\
.	.	.	4cc\
=53	=53	=53	=53
1BB-	1.r	4B-\	2.dd\
.	.	4G\	.
.	.	4B-\	.
.	.	4B-\	4dd\
2AA/	.	2A\	2cc\
=54	=54	=54	=54
1GG	4GG/	1G	4gg\
.	4AA/	.	4dd\
.	4BB/	.	4gg\
.	4C/	.	4gg\
2D\	2D\	2D\	2ff#\
=55	=55	=55	=55
*met(C)	*met(C)	*met(C)	*met(C)
*M4/4	*M4/4	*M4/4	*M4/4
1GG	1G	1GG	1gg
=56	=56	=56	=56
1G	1r	1r	2r
.	.	.	2dd\
=57	=57	=57	=57
1F#	1r	1r	2.dd\
.	.	.	4cc\
=58	=58	=58	=58
2G\	1r	1r	2b\
[2C/	.	.	[2ee\
=59	=59	=59	=59
2C/]	1r	1r	2ee\]
2BB/	.	.	[2dd\
=60	=60	=60	=60
2C/	1r	1r	4dd\]
.	.	.	4cc\
2EE/	.	.	[2cc\
=61	=61	=61	=61
1GG	1r	1G	2cc\]
.	.	.	2b\
=62	=62	=62	=62
1C	1r	2.c\	1cc
.	.	4B\	.
=63	=63	=63	=63
2A\	1r	2A\	1r
2G#\	.	2G#\	.
=64	=64	=64	=64
2A\	1r	2A\	2r
2E\	.	2E\	[2gg\
=65	=65	=65	=65
1F	1r	1F	2gg\]
.	.	.	4ff\
.	.	.	4ee\
=66	=66	=66	=66
1G	2r	1G	1dd
.	2GG/	.	.
=67	=67	=67	=67
2.C/	2.C/	1C	1ee
4BB/	4BB/	.	.
=68	=68	=68	=68
2AA/	2AA/	1r	1r
2GG#/	2GG#/	.	.
=69	=69	=69	=69
[1AA	[1AA	1r	2r
.	.	.	2ee\
=70	=70	=70	=70
2AA/]	1AA]	2r	2.aa\
2AA/	.	2AA/	.
.	.	.	8gg\L
.	.	.	8ff\J
=71	=71	=71	=71
2.A\	1r	2.A\	4ee\
.	.	.	4ff\
.	.	.	[2ee\
4G\	.	4G\	.
=72	=72	=72	=72
2F#\	1r	2F#\	4ee\]
.	.	.	4dd\
2G\	.	2G\	[2dd\
=73	=73	=73	=73
1E	1r	1E	2dd\]
.	.	.	2cc#\
=74	=74	=74	=74
1D	1r	1D	1dd
=75	=75	=75	=75
1GG	1r	1GG	1dd
=76	=76	=76	=76
*M3/1	*M3/1	*M3/1	*M3/1
0C	2.C/	2.C/	2.ee\
.	4C/	4C/	4ee\
.	2C/	2C/	2ee\
.	2C/	2C/	2ee\
1F	1FF	1F	1ff
=77	=77	=77	=77
0.C	0.C	0.C	0.gg
=78	=78	=78	=78
0GG	2.GG/	2.G\	2.gg\
.	4GG/	4G\	4dd\
.	2GG/	2G\	2gg\
.	2GG/	2G\	2gg\
1D	1D	1D	1ff
=79	=79	=79	=79
0AA	2.AA/	1.A	2.ee\
.	4BB/	.	4dd\
.	2C/	.	2ee\
.	2D\	2A\	2ff#\
1E	1E	1E	1gg#
=80	=80	=80	=80
0.AA	0.AA	0.A	0aa
.	.	.	1r
=81	=81	=81	=81
0AA	2.AA/	1.A	2.ee\
.	4BB/	.	4dd\
.	2C/	.	2ee\
.	2D\	2A\	2ff#\
1E	1E	1E	1gg#
=82	=82	=82	=82
0AA	0AA	0A	0aa
1r	1r	1r	1r
=83	=83	=83	=83
1FF	1FF	1F	1a
1C	2.C/	2.E\	2.ee\
.	4C/	4E\	4gg\
1D	1D	1D	2ff\
.	.	.	4gg\
.	.	.	4ff\
=84	=84	=84	=84
0AA	0AA	1A	0ee
.	.	1AA	.
1FF	1FF	1F	1a
=85	=85	=85	=85
1C	2.C/	2.E\	2.ee\
.	4C/	4E\	4gg\
1D	1D	1D	2ff\
.	.	.	4gg\
.	.	.	4ff\
1AA	1AA	1A	1ee
=86	=86	=86	=86
1.D	2.D\	1.D	2.ff\
.	4E\	.	4cc\
.	2F\	.	2dd\
2D\	2G\	2D\	4ee\
.	.	.	4dd\
1AA	1A	1AA	1cc#
=87	=87	=87	=87
0.D	0D	0D	0dd
.	1r	1r	1r
=88	=88	=88	=88
1.D	2.D\	1.D	2.ff\
.	4E\	.	4cc\
.	2F\	.	2dd\
2D\	2G\	2D\	4ee\
.	.	.	4dd\
1AA	1A	1AA	1cc#
=89	=89	=89	=89
*met(C)	*met(C)	*met(C)	*met(C)
*M4/4	*M4/4	*M4/4	*M4/4
1D	1D	1D	1dd
=90	=90	=90	=90
4.G\	4r	1r	1r
.	8G\L	.	.
8F\	8F\J	.	.
4E\	8E\L	.	.
.	8E\	.	.
8D/L	8D\	.	.
8C/J	8C\J	.	.
=91	=91	=91	=91
4BB/	4BB/	1r	1r
8C/L	8C/L	.	.
8BB/J	8BB/J	.	.
4AA/	4AA/	.	.
4D\	4D\	.	.
=92	=92	=92	=92
2GG/	2GG/	4r	2r
.	.	8GG/L	.
.	.	8AA/J	.
4BB/	2r	8BB/L	4r
.	.	8BB/	.
8C/L	.	8C/	8ee\L
8D/J	.	8D/J	8dd\J
=93	=93	=93	=93
4E\	1r	4E\	8cc\L
.	.	.	8cc\
4F#\	.	4F#\	8b\
.	.	.	8a\J
2G\	.	2G\	4b\
.	.	.	8gg\L
.	.	.	8ff\J
=94	=94	=94	=94
4c\	1r	1r	8ee\L
.	.	.	8ee\
8B\L	.	.	8dd\
8A\J	.	.	8cc\J
4G\	.	.	4b\
8A\L	.	.	8cc\L
8G\J	.	.	8b\J
=95	=95	=95	=95
2F#\	2r	1r	4a/
.	.	.	8dd\L
.	.	.	8cc\J
4G\	4r	.	2b\
4GG/	8GG/L	.	.
.	8AA/J	.	.
=96	=96	=96	=96
4BB/	8BB/L	1r	1r
.	8BB/	.	.
8C/L	8C/	.	.
8D/J	8D/J	.	.
4E\	4E\	.	.
8D\L	8D\L	.	.
8E\J	8E\J	.	.
=97	=97	=97	=97
4F\	4F\	2r	2r
4G\	4G\	.	.
4C/	2C/	4r	4r
4c\	.	8c\L	8ee\L
.	.	8B\J	8dd\J
=98	=98	=98	=98
4A\	1r	8A\L	8cc\L
.	.	8A\	8cc\
8G\L	.	8G\	8b\
8F\J	.	8F\J	8a\J
4E\	.	4E\	4g/
8F\L	.	8F\L	[4a/
8E\J	.	8E\J	.
=99	=99	=99	=99
4D\	2r	4D\	8a/L]
.	.	.	8a/J
4G\	.	4GG/	4b\
2C/	4r	2C/	4cc\
.	8C/L	.	8ee\L
.	8D/J	.	8ff\J
=100	=100	=100	=100
4E\	8E\L	1r	8gg\L
.	8E\	.	8g\
8F\L	8F\	.	8a\
8G\J	8G\J	.	8b\J
4A\	4A\	.	8cc\L
.	.	.	8dd\
8G\L	8G\L	.	8b\
8A\J	8A\J	.	8cc#\J
=101	=101	=101	=101
4B-\	4B-\	2r	4dd\
4A\	4A\	.	4cc#\
2D\	2D\	4r	2dd\
.	.	8D/L	.
.	.	8C/J	.
=102	=102	=102	=102
4BB/	1r	8BB/L	1r
.	.	8BB/	.
8AA/L	.	8AA/	.
8GG/J	.	8GG/J	.
4FF#/	.	4FF#/	.
4GG/	.	4GG/	.
=103	=103	=103	=103
[1AA	1r	1AA	4r
.	.	.	8a/L
.	.	.	8b/J
.	.	.	8cc\L
.	.	.	8cc\
.	.	.	8dd\
.	.	.	8ee\J
=104	=104	=104	=104
1AA]	4r	1r	4ff\
.	8A\L	.	4.ee\
.	8G\J	.	.
.	8F\L	.	.
.	8F\	.	8dd\
.	8E\	.	[4dd\
.	8D\J	.	.
=105	=105	=105	=105
2AA/	8E/L	1r	4dd\]
.	8AA/J	.	.
.	4A\	.	4cc#\
2F#\	2F#\	.	4dd\
.	.	.	8dd\L
.	.	.	8ccn\J
=106	=106	=106	=106
2G\	2G\	4r	2b\
.	.	8GG/L	.
.	.	8AA/J	.
4BB/	2r	8BB/L	4r
.	.	8BB/	.
8C/L	.	8C/	8gg\L
8D/J	.	8D/J	8ff\J
=107	=107	=107	=107
4E\	1r	4E\	8ee\L
.	.	.	8ee\
4F#\	.	4F#\	8dd\
.	.	.	8ee\J
4G\	.	4G\	4b\
4E\	.	4E\	4cc#\
=108	=108	=108	=108
[1D	4r	1D	4dd\
.	8D\L	.	4a/
.	8E\J	.	.
.	8F#\L	.	4r
.	8F#\	.	.
.	8G\	.	8dd\L
.	8A\J	.	8cc\J
=109	=109	=109	=109
2D\]	8B\L	2r	8b/L
.	8G\	.	8b/
.	8F\	.	8a/
.	8E\J	.	8g/J
2D\	2D\	4r	4f#/
.	.	8D/L	[4dd\
.	.	8C/J	.
=110	=110	=110	=110
4BB/	2G\	8BB/L	8dd\L]
.	.	8BB/	8dd\J
8AA/L	.	8AA/	4ee\
8GG/J	.	8GG/J	.
2D\	2D\	2D\	2ff#\
=111	=111	=111	=111
0GG	0GG	0G	0gg
==	==	==	==
*-	*-	*-	*-
!!!ENC: Craig Stuart Sapp
!!!END: 2004/12/14/
